file/cartier.svg

<svg clip-rule="evenodd" fill-rule="evenodd" stroke-linejoin="round" stroke-miterlimit="1.41421" viewBox="0 0 560 400" xmlns="http://www.w3.org/2000/svg"><g fill-rule="nonzero" transform="matrix(.321281 0 0 .321281 115.504 152.29)"><path d="m221.558 8.436c-8.612-.021-18.231.982-28.665 3.636 0 0-53.498 13.277-112.464 68.338 0 0-28.116 28.507-48.032 65.214 0 0-20.696 38.269-23.82 70.29 0 0-3.124 35.926 17.182 54.279 0 0 23.43 21.478 74.585 17.182 0 0 32.022-3.905 66.776-25.773 0 0 16.792-10.934 27.726-21.087 0 0-5.077 18.354 2.343 31.631 0 0 7.029 12.496 23.039 15.229 0 0 11.715 2.343 28.507-3.905 0 0 10.543-4.686 17.572-8.2 0 0 14.449-7.81 28.507-18.744 0 0-2.734 10.934 3.514 20.306 0 0 7.42 10.543 21.087 11.715 0 0 36.707 2.733 87.863-60.137l-35.926 57.794 32.802-.391 28.507-49.203s29.678-50.765 35.926-57.013c0 0 15.229-20.306 38.269-24.992l15.229 1.172s6.248 3.124 6.248 10.153l-11.324-1.953s-6.639.781-10.153 7.81c0 0-3.124 6.639-1.562 13.277 0 0 1.952 5.467 7.029 7.42l3.514 1.171 11.325-1.562s19.915-7.419 47.25-41.783l-6.248 11.324-23.039 39.441-26.945 47.641s-7.81 15.62-4.295 24.992c0 0 3.514 8.981 15.229 11.324l25.383-1.952s14.448-4.296 26.163-14.449l16.792-13.667s20.306-17.182 38.659-37.488l-1.171 1.562s-16.011 29.287-18.744 39.05c0 0-6.248 20.696 8.2 28.897l16.401 1.562s13.668-1.953 27.336-11.715l22.258-19.135s19.135-17.963 29.288-30.849c0 0-5.077 11.715-6.248 20.306 0 0-3.905 27.335 21.477 38.269l23.821 1.952s9.372-.781 23.82-5.857c0 0 33.583-10.934 80.834-54.28 0 0 23.82-21.868 40.612-41.393l-59.356 99.578h29.287l21.868-36.707 28.116-45.689s16.011-25.382 45.299-41.783c0 0 11.715-7.029 20.696-8.591 0 0 9.372-1.953 11.325 2.733 0 0-13.277-2.733-16.401 10.934 0 0-3.124 13.668 7.81 17.963 0 0 8.201 2.734 14.841-1.952 0 0 5.86-4.296 7.81-12.496 0 0 1.56-8.201-2.34-14.058 0 0-4.69-7.029-15.625-7.81 0 0-12.106-.391-36.317 15.62 0 0-17.963 11.715-25.383 19.134l19.916-33.973h-29.678s-28.116 47.641-77.71 88.643c0 0-48.422 39.441-75.757 40.612 0 0-26.554 1.953-29.287-18.353 0 0-1.562-12.106 5.467-29.288 0 0 16.401 1.562 38.269-5.467 0 0 20.696-6.638 37.878-18.353 0 0 18.354-12.496 24.992-25.773 0 0 7.81-14.839-1.171-27.335 0 0-16.401-16.011-51.937-1.172 0 0-36.707 15.23-64.042 51.546l-7.029 10.544-.781 1.171-19.525 22.649-19.915 19.916s-24.212 23.82-36.317 16.791c0 0-4.686-3.124-4.686-10.543 0 0 0-7.42 5.467-16.401l56.623-98.406h-25.383s-14.058 23.039-30.459 44.907c0 0-32.021 42.565-66.776 67.166 0 0-23.82 18.354-37.097 12.106 0 0-5.858-2.734-5.467-10.153 0 0 .39-8.201 8.2-19.525l55.451-94.501 30.85-.391 3.905-3.905h-31.24l33.192-58.965-28.116.39s-19.525 33.193-34.364 53.108c0 0-27.335 35.926-49.984 45.689 0 0 3.905-5.077 4.296-12.887l-.391-6.248s-1.562-8.2-9.372-12.105l-7.029-1.953-13.277 1.172s-15.62 3.514-30.068 16.01l12.105-20.306h-28.116s-25.382 45.298-58.575 83.958c0 0-43.346 49.984-67.166 44.126 0 0-7.029-3.514-7.42-12.105 0 0 0-8.591 7.42-20.697l56.623-95.672-28.117.39-8.981 15.62-5.858 11.325s1.172-3.515 0-10.934c0 0-2.343-17.573-19.134-21.087l-13.277-1.172s-33.583-.39-71.852 33.193c0 0-26.164 23.43-46.079 58.965 0 0-39.831 37.098-82.005 45.298 0 0-37.489 7.81-53.499-8.981 0 0-17.573-17.963-17.573-49.203 0 0 .391-37.098 26.945-87.472 0 0 28.116-41.393 45.298-60.137 0 0 43.736-48.032 89.034-60.138 0 0 37.098-9.762 57.794 7.029 0 0 17.573 14.449 19.135 43.737l10.153-17.183s12.886-20.306 24.211-32.021c0 0-10.544 4.686-23.43 6.248 0 0-16.011 1.953-23.821-2.733 0 0-17.396-10.988-45.53-11.056zm95.368 137.993c11.441.058 17.328 5.443 17.328 5.443 13.668 12.496 2.734 35.926 2.734 35.926-21.087 43.736-51.937 70.29-51.937 70.29l-18.744 13.277c-29.287 14.448-41.783 4.295-41.783 4.295-10.153-8.591-5.858-28.116-5.858-28.116 2.734-13.277 13.668-32.411 13.668-32.411l21.087-30.85c19.134-21.087 41.002-32.021 41.002-32.021 8.994-4.43 16.51-5.863 22.503-5.833zm502.342 3.441c.393-.004.781.013 1.16.049 0 0 6.248.781 8.981 3.905 0 0 2.734 3.905 1.953 11.715 0 0-1.953 20.697-24.992 40.222 0 0-26.164 22.258-56.623 21.477l5.858-12.105s13.277-25.773 32.802-45.689c0 0 18.688-19.425 30.861-19.574z"/><path d="m700.544 106.18s0 5.076 3.905 8.981c0 0 3.515 3.515 8.982 3.515 0 0 5.076 0 8.591-3.515 0 0 3.514-3.905 3.514-8.981l-3.514-8.982s-3.905-3.514-8.591-3.514c0 0-5.467 0-8.982 3.514 0 0-3.905 3.515-3.905 8.982"/></g></svg>

<?xml version="1.0" encoding="UTF-8" standalone="no"?>
<!DOCTYPE svg PUBLIC "-//W3C//DTD SVG 1.1//EN" "http://www.w3.org/Graphics/SVG/1.1/DTD/svg11.dtd">
<svg width="100%" height="100%" viewBox="0 0 560 400" version="1.1" xmlns="http://www.w3.org/2000/svg" xmlns:xlink="http://www.w3.org/1999/xlink" xml:space="preserve" xmlns:serif="http://www.serif.com/" style="fill-rule:evenodd;clip-rule:evenodd;stroke-linejoin:round;stroke-miterlimit:1.41421;">
    <g transform="matrix(0.321281,0,0,0.321281,115.504,152.29)">
        <path id="path2450" d="M221.558,8.436C212.946,8.415 203.327,9.418 192.893,12.072C192.893,12.072 139.395,25.349 80.429,80.41C80.429,80.41 52.313,108.917 32.397,145.624C32.397,145.624 11.701,183.893 8.577,215.914C8.577,215.914 5.453,251.84 25.759,270.193C25.759,270.193 49.189,291.671 100.344,287.375C100.344,287.375 132.366,283.47 167.12,261.602C167.12,261.602 183.912,250.668 194.846,240.515C194.846,240.515 189.769,258.869 197.189,272.146C197.189,272.146 204.218,284.642 220.228,287.375C220.228,287.375 231.943,289.718 248.735,283.47C248.735,283.47 259.278,278.784 266.307,275.27C266.307,275.27 280.756,267.46 294.814,256.526C294.814,256.526 292.08,267.46 298.328,276.832C298.328,276.832 305.748,287.375 319.415,288.547C319.415,288.547 356.122,291.28 407.278,228.41L371.352,286.204L404.154,285.813L432.661,236.61C432.661,236.61 462.339,185.845 468.587,179.597C468.587,179.597 483.816,159.291 506.856,154.605L522.085,155.777C522.085,155.777 528.333,158.901 528.333,165.93L517.009,163.977C517.009,163.977 510.37,164.758 506.856,171.787C506.856,171.787 503.732,178.426 505.294,185.064C505.294,185.064 507.246,190.531 512.323,192.484L515.837,193.655L527.162,192.093C527.162,192.093 547.077,184.674 574.412,150.31L568.164,161.634L545.125,201.075L518.18,248.716C518.18,248.716 510.37,264.336 513.885,273.708C513.885,273.708 517.399,282.689 529.114,285.032L554.497,283.08C554.497,283.08 568.945,278.784 580.66,268.631L597.452,254.964C597.452,254.964 617.758,237.782 636.111,217.476L634.94,219.038C634.94,219.038 618.929,248.325 616.196,258.088C616.196,258.088 609.948,278.784 624.396,286.985L640.797,288.547C640.797,288.547 654.465,286.594 668.133,276.832L690.391,257.697C690.391,257.697 709.526,239.734 719.679,226.848C719.679,226.848 714.602,238.563 713.431,247.154C713.431,247.154 709.526,274.489 734.908,285.423L758.729,287.375C758.729,287.375 768.101,286.594 782.549,281.518C782.549,281.518 816.132,270.584 863.383,227.238C863.383,227.238 887.203,205.37 903.995,185.845L844.639,285.423L873.926,285.423L895.794,248.716L923.91,203.027C923.91,203.027 939.921,177.645 969.209,161.244C969.209,161.244 980.924,154.215 989.905,152.653C989.905,152.653 999.277,150.7 1001.23,155.386C1001.23,155.386 987.953,152.653 984.829,166.32C984.829,166.32 981.705,179.988 992.639,184.283C992.639,184.283 1000.84,187.017 1007.48,182.331C1007.48,182.331 1013.34,178.035 1015.29,169.835C1015.29,169.835 1016.85,161.634 1012.95,155.777C1012.95,155.777 1008.26,148.748 997.325,147.967C997.325,147.967 985.219,147.576 961.008,163.587C961.008,163.587 943.045,175.302 935.625,182.721L955.541,148.748L925.863,148.748C925.863,148.748 897.747,196.389 848.153,237.391C848.153,237.391 799.731,276.832 772.396,278.003C772.396,278.003 745.842,279.956 743.109,259.65C743.109,259.65 741.547,247.544 748.576,230.362C748.576,230.362 764.977,231.924 786.845,224.895C786.845,224.895 807.541,218.257 824.723,206.542C824.723,206.542 843.077,194.046 849.715,180.769C849.715,180.769 857.525,165.93 848.544,153.434C848.544,153.434 832.143,137.423 796.607,152.262C796.607,152.262 759.9,167.492 732.565,203.808L725.536,214.352L724.755,215.523L705.23,238.172L685.315,258.088C685.315,258.088 661.103,281.908 648.998,274.879C648.998,274.879 644.312,271.755 644.312,264.336C644.312,264.336 644.312,256.916 649.779,247.935L706.402,149.529L681.019,149.529C681.019,149.529 666.961,172.568 650.56,194.436C650.56,194.436 618.539,237.001 583.784,261.602C583.784,261.602 559.964,279.956 546.687,273.708C546.687,273.708 540.829,270.974 541.22,263.555C541.22,263.555 541.61,255.354 549.42,244.03L604.871,149.529L635.721,149.138L639.626,145.233L608.386,145.233L641.578,86.268L613.462,86.658C613.462,86.658 593.937,119.851 579.098,139.766C579.098,139.766 551.763,175.692 529.114,185.455C529.114,185.455 533.019,180.378 533.41,172.568L533.019,166.32C533.019,166.32 531.457,158.12 523.647,154.215L516.618,152.262L503.341,153.434C503.341,153.434 487.721,156.948 473.273,169.444L485.378,149.138L457.262,149.138C457.262,149.138 431.88,194.436 398.687,233.096C398.687,233.096 355.341,283.08 331.521,277.222C331.521,277.222 324.492,273.708 324.101,265.117C324.101,265.117 324.101,256.526 331.521,244.42L388.144,148.748L360.027,149.138L351.046,164.758L345.188,176.083C345.188,176.083 346.36,172.568 345.188,165.149C345.188,165.149 342.845,147.576 326.054,144.062L312.777,142.89C312.777,142.89 279.194,142.5 240.925,176.083C240.925,176.083 214.761,199.513 194.846,235.048C194.846,235.048 155.015,272.146 112.841,280.346C112.841,280.346 75.352,288.156 59.342,271.365C59.342,271.365 41.769,253.402 41.769,222.162C41.769,222.162 42.16,185.064 68.714,134.69C68.714,134.69 96.83,93.297 114.012,74.553C114.012,74.553 157.748,26.521 203.046,14.415C203.046,14.415 240.144,4.653 260.84,21.444C260.84,21.444 278.413,35.893 279.975,65.181L290.128,47.998C290.128,47.998 303.014,27.692 314.339,15.977C314.339,15.977 303.795,20.663 290.909,22.225C290.909,22.225 274.898,24.178 267.088,19.492C267.088,19.492 249.692,8.504 221.558,8.436ZM316.926,146.429C328.367,146.487 334.254,151.872 334.254,151.872C347.922,164.368 336.988,187.798 336.988,187.798C315.901,231.534 285.051,258.088 285.051,258.088L266.307,271.365C237.02,285.813 224.524,275.66 224.524,275.66C214.371,267.069 218.666,247.544 218.666,247.544C221.4,234.267 232.334,215.133 232.334,215.133L253.421,184.283C272.555,163.196 294.423,152.262 294.423,152.262C303.417,147.832 310.933,146.399 316.926,146.429ZM819.268,149.87C819.661,149.866 820.049,149.883 820.428,149.919C820.428,149.919 826.676,150.7 829.409,153.824C829.409,153.824 832.143,157.729 831.362,165.539C831.362,165.539 829.409,186.236 806.37,205.761C806.37,205.761 780.206,228.019 749.747,227.238L755.605,215.133C755.605,215.133 768.882,189.36 788.407,169.444C788.407,169.444 807.095,150.019 819.268,149.87Z" style="fill-rule:nonzero;"/>
        <path id="path2454" d="M700.544,106.18C700.544,106.18 700.544,111.256 704.449,115.161C704.449,115.161 707.964,118.676 713.431,118.676C713.431,118.676 718.507,118.676 722.022,115.161C722.022,115.161 725.536,111.256 725.536,106.18L722.022,97.198C722.022,97.198 718.117,93.684 713.431,93.684C713.431,93.684 707.964,93.684 704.449,97.198C704.449,97.198 700.544,100.713 700.544,106.18" style="fill-rule:nonzero;"/>
    </g>
</svg>
